src/lib/packages/icons/src/assets/filled/user-alt.svg

<svg xmlns="http://www.w3.org/2000/svg" width="24" height="24" fill="none"><path fill="currentColor" d="M8.009 6.5c0-2.206 1.794-4 4-4s4 1.794 4 4-1.794 4-4 4-4-1.794-4-4Zm5.991 6h-4c-4.06 0-5.5 2.973-5.5 5.519V21a.5.5 0 0 0 .5.5h14a.5.5 0 0 0 .5-.5v-2.981c0-2.546-1.44-5.519-5.5-5.519Z"/></svg>

<svg width="24" height="24" viewBox="0 0 24 24" fill="none" xmlns="http://www.w3.org/2000/svg">
<path d="M8.00903 6.5C8.00903 4.294 9.80303 2.5 12.009 2.5C14.215 2.5 16.009 4.294 16.009 6.5C16.009 8.706 14.215 10.5 12.009 10.5C9.80303 10.5 8.00903 8.706 8.00903 6.5ZM14 12.5H10C5.94 12.5 4.5 15.473 4.5 18.019V21C4.5 21.276 4.724 21.5 5 21.5H19C19.276 21.5 19.5 21.276 19.5 21V18.019C19.5 15.473 18.06 12.5 14 12.5Z" fill="currentColor"/>
</svg>
